images/supports.svg

<?xml version="1.0"?>
<svg xmlns="http://www.w3.org/2000/svg" height="512px" viewBox="0 0 512.00003 512.00003" width="512px"><g><path d="m256 0c-107.941406 0-195.765625 87.824219-195.765625 195.765625v180.703125c0 24.914062 20.265625 45.179688 45.175781 45.179688 24.914063 0 45.179688-20.265626 45.179688-45.179688v-150.585938c0-24.910156-20.265625-45.175781-45.179688-45.175781-5.070312 0-9.867187 1.027344-14.425781 2.574219 6.425781-85.511719 77.902344-153.164062 165.015625-153.164062 87.066406 0 158.523438 67.589843 165.007812 153.042968-4.53125-1.550781-9.355468-2.453125-14.417968-2.453125-24.914063 0-45.179688 20.265625-45.179688 45.175781v150.585938c0 24.914062 20.265625 45.179688 45.179688 45.179688 5.304687 0 10.324218-1.085938 15.058594-2.773438v17.832031c0 8.308594-6.765626 15.058594-15.058594 15.058594h-108.1875c-6.238282-17.492187-22.796875-30.117187-42.402344-30.117187-24.910156 0-45.175781 20.265624-45.175781 45.175781 0 24.910156 20.265625 45.175781 45.175781 45.175781 19.605469 0 36.164062-12.628906 42.402344-30.117188h108.1875c24.910156 0 45.175781-20.265624 45.175781-45.175781 0-90.578125 0-150.265625 0-240.941406 0-107.941406-87.824219-195.765625-195.765625-195.765625zm0 0" data-original="#000000" class="active-path" data-old_color="#000000" fill="#04458F"/><path d="m481.882812 213.597656v175.15625c17.488282-6.234375 30.117188-22.792968 30.117188-42.402344v-90.351562c0-19.605469-12.628906-36.164062-30.117188-42.402344zm0 0" data-original="#000000" class="active-path" data-old_color="#000000" fill="#04458F"/><path d="m0 256v90.351562c0 19.609376 12.628906 36.167969 30.117188 42.402344v-175.15625c-17.488282 6.238282-30.117188 22.796875-30.117188 42.402344zm0 0" data-original="#000000" class="active-path" data-old_color="#000000" fill="#04458F"/></g> </svg>

<svg xmlns="http://www.w3.org/2000/svg" height="512" width="512"><path d="M256 0C148.059 0 60.234 87.824 60.234 195.766v180.703c0 24.914 20.266 45.18 45.176 45.18 24.914 0 45.18-20.266 45.18-45.18V225.883c0-24.91-20.266-45.176-45.18-45.176-5.07 0-9.867 1.027-14.426 2.574C97.41 97.77 168.887 30.117 256 30.117c87.066 0 158.523 67.59 165.008 153.043-4.531-1.55-9.356-2.453-14.418-2.453-24.914 0-45.18 20.266-45.18 45.176v150.586c0 24.914 20.266 45.18 45.18 45.18 5.305 0 10.324-1.087 15.058-2.774v17.832c0 8.309-6.765 15.059-15.058 15.059H298.402c-6.238-17.493-22.797-30.118-42.402-30.118-24.91 0-45.176 20.266-45.176 45.176C210.824 491.734 231.09 512 256 512c19.605 0 36.164-12.629 42.402-30.117H406.59c24.91 0 45.176-20.266 45.176-45.176V195.766C451.766 87.824 363.94 0 256 0zm225.883 213.598v175.156C499.37 382.52 512 365.96 512 346.352V256c0-19.605-12.629-36.164-30.117-42.402zM0 256v90.352c0 19.609 12.629 36.168 30.117 42.402V213.598C12.63 219.836 0 236.395 0 256zm0 0" data-original="#000000" class="active-path" data-old_color="#000000" fill="#04458F"/></svg>
